shaders/Filmic_Base_sRGB.cube
TITLE "Filmic_Base_sRGB"
LUT_3D_SIZE 9
DOMAIN_MIN 0.0 0.0 0.0
DOMAIN_MAX 1.0 1.0 1.0
0.000015 0.000015 0.000015
0.024134 0.000015 0.000015
0.122885 0.000015 0.000015
0.416790 0.000015 0.000015
0.809818 0.000015 0.000015
0.986618 0.000015 0.000015
1.000000 0.713195 0.713195
1.000000 1.000000 1.000000
1.000000 1.000000 1.000000
0.000015 0.024134 0.000015
0.024134 0.024134 0.000015
0.122885 0.024134 0.000015
0.416790 0.024134 0.000015
0.809818 0.024134 0.000015
0.986618 0.024134 0.000015
1.000000 0.713618 0.713195
1.000000 1.000000 1.000000
1.000000 1.000000 1.000000
0.000015 0.122885 0.000015
0.024134 0.122885 0.000015
0.122885 0.122885 0.000015
0.416790 0.122885 0.000015
0.809818 0.122885 0.000015
0.986618 0.122885 0.000015
1.000000 0.717251 0.713195
1.000000 1.000000 1.000000
1.000000 1.000000 1.000000
0.000015 0.416790 0.000015
0.024134 0.416790 0.000015
0.122885 0.416790 0.000015
0.416790 0.416790 0.000015
0.809818 0.416790 0.000015
0.986618 0.416790 0.000015
1.000000 0.745370 0.713195
1.000000 1.000000 1.000000
1.000000 1.000000 1.000000
0.000015 0.809818 0.000015
0.024134 0.809818 0.000015
0.122885 0.809818 0.000015
0.416790 0.809818 0.000015
0.809818 0.809818 0.000015
0.986618 0.809818 0.000015
1.000000 0.865509 0.713195
1.000000 1.000000 1.000000
1.000000 1.000000 1.000000
0.000015 0.986618 0.000015
0.024134 0.986618 0.000015
0.122885 0.986618 0.000015
0.416790 0.986618 0.000015
0.809818 0.986618 0.000015
0.986618 0.986618 0.000015
1.000000 0.988249 0.713195
1.000000 1.000000 1.000000
1.000000 1.000000 1.000000
0.713195 1.000000 0.713195
0.713618 1.000000 0.713195
0.717251 1.000000 0.713195
0.745370 1.000000 0.713195
0.865509 1.000000 0.713195
0.988249 1.000000 0.713195
1.000000 1.000000 0.713195
1.000000 1.000000 1.000000
1.000000 1.000000 1.000000
1.000000 1.000000 1.000000
1.000000 1.000000 1.000000
1.000000 1.000000 1.000000
1.000000 1.000000 1.000000
1.000000 1.000000 1.000000
1.000000 1.000000 1.000000
1.000000 1.000000 1.000000
1.000000 1.000000 1.000000
1.000000 1.000000 1.000000
1.000000 1.000000 1.000000
1.000000 1.000000 1.000000
1.000000 1.000000 1.000000
1.000000 1.000000 1.000000
1.000000 1.000000 1.000000
1.000000 1.000000 1.000000
1.000000 1.000000 1.000000
1.000000 1.000000 1.000000
1.000000 1.000000 1.000000
0.000015 0.000015 0.024134
0.024134 0.000015 0.024134
0.122885 0.000015 0.024134
0.416790 0.000015 0.024134
0.809818 0.000015 0.024134
0.986618 0.000015 0.024134
1.000000 0.713195 0.713618
1.000000 1.000000 1.000000
1.000000 1.000000 1.000000
0.000015 0.024134 0.024134
0.024134 0.024134 0.024134
0.122885 0.024134 0.024134
0.416790 0.024134 0.024134
0.809818 0.024134 0.024134
0.986618 0.024134 0.024134
1.000000 0.713618 0.713618
1.000000 1.000000 1.000000
1.000000 1.000000 1.000000
0.000015 0.122885 0.024134
0.024134 0.122885 0.024134
0.122885 0.122885 0.024134
0.416790 0.122885 0.024134
0.809818 0.122885 0.024134
0.986618 0.122885 0.024134
1.000000 0.717251 0.713618
1.000000 1.000000 1.000000
1.000000 1.000000 1.000000
0.000015 0.416790 0.024134
0.024134 0.416790 0.024134
0.122885 0.416790 0.024134
0.416790 0.416790 0.024134
0.809818 0.416790 0.024134
0.986618 0.416790 0.024134
1.000000 0.745370 0.713618
1.000000 1.000000 1.000000
1.000000 1.000000 1.000000
0.000015 0.809818 0.024134
0.024134 0.809818 0.024134
0.122885 0.809818 0.024134
0.416790 0.809818 0.024134
0.809818 0.809818 0.024134
0.986618 0.809818 0.024134
1.000000 0.865508 0.713618
1.000000 1.000000 1.000000
1.000000 1.000000 1.000000
0.000015 0.986618 0.024134
0.024134 0.986618 0.024134
0.122885 0.986618 0.024134
0.416790 0.986618 0.024134
0.809818 0.986618 0.024134
0.986618 0.986618 0.024134
1.000000 0.988249 0.713618
1.000000 1.000000 1.000000
1.000000 1.000000 1.000000
0.713195 1.000000 0.713618
0.713618 1.000000 0.713618
0.717251 1.000000 0.713618
0.745370 1.000000 0.713618
0.865508 1.000000 0.713618
0.988249 1.000000 0.713618
1.000000 1.000000 0.713618
1.000000 1.000000 1.000000
1.000000 1.000000 1.000000
1.000000 1.000000 1.000000
1.000000 1.000000 1.000000
1.000000 1.000000 1.000000
1.000000 1.000000 1.000000
1.000000 1.000000 1.000000
1.000000 1.000000 1.000000
1.000000 1.000000 1.000000
1.000000 1.000000 1.000000
1.000000 1.000000 1.000000
1.000000 1.000000 1.000000
1.000000 1.000000 1.000000
1.000000 1.000000 1.000000
1.000000 1.000000 1.000000
1.000000 1.000000 1.000000
1.000000 1.000000 1.000000
1.000000 1.000000 1.000000
1.000000 1.000000 1.000000
1.000000 1.000000 1.000000
0.000015 0.000015 0.122885
0.024134 0.000015 0.122885
0.122885 0.000015 0.122885
0.416790 0.000015 0.122885
0.809818 0.000015 0.122885
0.986618 0.000015 0.122885
1.000000 0.713195 0.717251
1.000000 1.000000 1.000000
1.000000 1.000000 1.000000
0.000015 0.024134 0.122885
0.024134 0.024134 0.122885
0.122885 0.024134 0.122885
0.416790 0.024134 0.122885
0.809818 0.024134 0.122885
0.986618 0.024134 0.122885
1.000000 0.713618 0.717251
1.000000 1.000000 1.000000
1.000000 1.000000 1.000000
0.000015 0.122885 0.122885
0.024134 0.122885 0.122885
0.122885 0.122885 0.122885
0.416790 0.122885 0.122885
0.809818 0.122885 0.122885
0.986618 0.122885 0.122885
1.000000 0.717251 0.717251
1.000000 1.000000 1.000000
1.000000 1.000000 1.000000
0.000015 0.416790 0.122885
0.024134 0.416790 0.122885
0.122885 0.416790 0.122885
0.416790 0.416790 0.122885
0.809818 0.416790 0.122885
0.986618 0.416790 0.122885
1.000000 0.745370 0.717251
1.000000 1.000000 1.000000
1.000000 1.000000 1.000000
0.000015 0.809818 0.122885
0.024134 0.809818 0.122885
0.122885 0.809818 0.122885
0.416790 0.809818 0.122885
0.809818 0.809818 0.122885
0.986618 0.809818 0.122885
1.000000 0.865508 0.717251
1.000000 1.000000 1.000000
1.000000 1.000000 1.000000
0.000015 0.986618 0.122885
0.024134 0.986618 0.122885
0.122885 0.986618 0.122885
0.416790 0.986618 0.122885
0.809818 0.986618 0.122885
0.986618 0.986618 0.122885
1.000000 0.988249 0.717251
1.000000 1.000000 1.000000
1.000000 1.000000 1.000000
0.713195 1.000000 0.717251
0.713618 1.000000 0.717251
0.717251 1.000000 0.717251
0.745370 1.000000 0.717251
0.865508 1.000000 0.717251
0.988249 1.000000 0.717251
1.000000 1.000000 0.717251
1.000000 1.000000 1.000000
1.000000 1.000000 1.000000
1.000000 1.000000 1.000000
1.000000 1.000000 1.000000
1.000000 1.000000 1.000000
1.000000 1.000000 1.000000
1.000000 1.000000 1.000000
1.000000 1.000000 1.000000
1.000000 1.000000 1.000000
1.000000 1.000000 1.000000
1.000000 1.000000 1.000000
1.000000 1.000000 1.000000
1.000000 1.000000 1.000000
1.000000 1.000000 1.000000
1.000000 1.000000 1.000000
1.000000 1.000000 1.000000
1.000000 1.000000 1.000000
1.000000 1.000000 1.000000
1.000000 1.000000 1.000000
1.000000 1.000000 1.000000
0.000015 0.000015 0.416790
0.024134 0.000015 0.416790
0.122885 0.000015 0.416790
0.416790 0.000015 0.416790
0.809818 0.000015 0.416790
0.986618 0.000015 0.416790
1.000000 0.713195 0.745370
1.000000 1.000000 1.000000
1.000000 1.000000 1.000000
0.000015 0.024134 0.416790
0.024134 0.024134 0.416790
0.122885 0.024134 0.416790
0.416790 0.024134 0.416790
0.809818 0.024134 0.416790
0.986618 0.024134 0.416790
1.000000 0.713618 0.745370
1.000000 1.000000 1.000000
1.000000 1.000000 1.000000
0.000015 0.122885 0.416790
0.024134 0.122885 0.416790
0.122885 0.122885 0.416790
0.416790 0.122885 0.416790
0.809818 0.122885 0.416790
0.986618 0.122885 0.416790
1.000000 0.717251 0.745370
1.000000 1.000000 1.000000
1.000000 1.000000 1.000000
0.000015 0.416790 0.416790
0.024134 0.416790 0.416790
0.122885 0.416790 0.416790
0.416790 0.416790 0.416790
0.809818 0.416790 0.416790
0.986618 0.416790 0.416790
1.000000 0.745370 0.745370
1.000000 1.000000 1.000000
1.000000 1.000000 1.000000
0.000015 0.809818 0.416790
0.024134 0.809818 0.416790
0.122885 0.809818 0.416790
0.416790 0.809818 0.416790
0.809818 0.809818 0.416790
0.986618 0.809818 0.416790
1.000000 0.865509 0.745370
1.000000 1.000000 1.000000
1.000000 1.000000 1.000000
0.000015 0.986618 0.416790
0.024134 0.986618 0.416790
0.122885 0.986618 0.416790
0.416790 0.986618 0.416790
0.809818 0.986618 0.416790
0.986618 0.986618 0.416790
1.000000 0.988249 0.745370
1.000000 1.000000 1.000000
1.000000 1.000000 1.000000
0.713195 1.000000 0.745370
0.713618 1.000000 0.745370
0.717251 1.000000 0.745370
0.745370 1.000000 0.745370
0.865509 1.000000 0.745370
0.988249 1.000000 0.745370
1.000000 1.000000 0.745370
1.000000 1.000000 1.000000
1.000000 1.000000 1.000000
1.000000 1.000000 1.000000
1.000000 1.000000 1.000000
1.000000 1.000000 1.000000
1.000000 1.000000 1.000000
1.000000 1.000000 1.000000
1.000000 1.000000 1.000000
1.000000 1.000000 1.000000
1.000000 1.000000 1.000000
1.000000 1.000000 1.000000
1.000000 1.000000 1.000000
1.000000 1.000000 1.000000
1.000000 1.000000 1.000000
1.000000 1.000000 1.000000
1.000000 1.000000 1.000000
1.000000 1.000000 1.000000
1.000000 1.000000 1.000000
1.000000 1.000000 1.000000
1.000000 1.000000 1.000000
0.000015 0.000015 0.809818
0.024134 0.000015 0.809818
0.122885 0.000015 0.809818
0.416790 0.000015 0.809818
0.809818 0.000015 0.809818
0.986618 0.000015 0.809818
1.000000 0.713195 0.865509
1.000000 1.000000 1.000000
1.000000 1.000000 1.000000
0.000015 0.024134 0.809818
0.024134 0.024134 0.809818
0.122885 0.024134 0.809818
0.416790 0.024134 0.809818
0.809818 0.024134 0.809818
0.986618 0.024134 0.809818
1.000000 0.713618 0.865508
1.000000 1.000000 1.000000
1.000000 1.000000 1.000000
0.000015 0.122885 0.809818
0.024134 0.122885 0.809818
0.122885 0.122885 0.809818
0.416790 0.122885 0.809818
0.809818 0.122885 0.809818
0.986618 0.122885 0.809818
1.000000 0.717251 0.865508
1.000000 1.000000 1.000000
1.000000 1.000000 1.000000
0.000015 0.416790 0.809818
0.024134 0.416790 0.809818
0.122885 0.416790 0.809818
0.416790 0.416790 0.809818
0.809818 0.416790 0.809818
0.986618 0.416790 0.809818
1.000000 0.745370 0.865509
1.000000 1.000000 1.000000
1.000000 1.000000 1.000000
0.000015 0.809818 0.809818
0.024134 0.809818 0.809818
0.122885 0.809818 0.809818
0.416790 0.809818 0.809818
0.809818 0.809818 0.809818
0.986618 0.809818 0.809818
1.000000 0.865509 0.865509
1.000000 1.000000 1.000000
1.000000 1.000000 1.000000
0.000015 0.986618 0.809818
0.024134 0.986618 0.809818
0.122885 0.986618 0.809818
0.416790 0.986618 0.809818
0.809818 0.986618 0.809818
0.986618 0.986618 0.809818
1.000000 0.988249 0.865508
1.000000 1.000000 1.000000
1.000000 1.000000 1.000000
0.713195 1.000000 0.865509
0.713618 1.000000 0.865508
0.717251 1.000000 0.865508
0.745370 1.000000 0.865509
0.865509 1.000000 0.865509
0.988249 1.000000 0.865508
1.000000 1.000000 0.865509
1.000000 1.000000 1.000000
1.000000 1.000000 1.000000
1.000000 1.000000 1.000000
1.000000 1.000000 1.000000
1.000000 1.000000 1.000000
1.000000 1.000000 1.000000
1.000000 1.000000 1.000000
1.000000 1.000000 1.000000
1.000000 1.000000 1.000000
1.000000 1.000000 1.000000
1.000000 1.000000 1.000000
1.000000 1.000000 1.000000
1.000000 1.000000 1.000000
1.000000 1.000000 1.000000
1.000000 1.000000 1.000000
1.000000 1.000000 1.000000
1.000000 1.000000 1.000000
1.000000 1.000000 1.000000
1.000000 1.000000 1.000000
1.000000 1.000000 1.000000
0.000015 0.000015 0.986618
0.024134 0.000015 0.986618
0.122885 0.000015 0.986618
0.416790 0.000015 0.986618
0.809818 0.000015 0.986618
0.986618 0.000015 0.986618
1.000000 0.713195 0.988249
1.000000 1.000000 1.000000
1.000000 1.000000 1.000000
0.000015 0.024134 0.986618
0.024134 0.024134 0.986618
0.122885 0.024134 0.986618
0.416790 0.024134 0.986618
0.809818 0.024134 0.986618
0.986618 0.024134 0.986618
1.000000 0.713618 0.988249
1.000000 1.000000 1.000000
1.000000 1.000000 1.000000
0.000015 0.122885 0.986618
0.024134 0.122885 0.986618
0.122885 0.122885 0.986618
0.416790 0.122885 0.986618
0.809818 0.122885 0.986618
0.986618 0.122885 0.986618
1.000000 0.717251 0.988249
1.000000 1.000000 1.000000
1.000000 1.000000 1.000000
0.000015 0.416790 0.986618
0.024134 0.416790 0.986618
0.122885 0.416790 0.986618
0.416790 0.416790 0.986618
0.809818 0.416790 0.986618
0.986618 0.416790 0.986618
1.000000 0.745370 0.988249
1.000000 1.000000 1.000000
1.000000 1.000000 1.000000
0.000015 0.809818 0.986618
0.024134 0.809818 0.986618
0.122885 0.809818 0.986618
0.416790 0.809818 0.986618
0.809818 0.809818 0.986618
0.986618 0.809818 0.986618
1.000000 0.865508 0.988249
1.000000 1.000000 1.000000
1.000000 1.000000 1.000000
0.000015 0.986618 0.986618
0.024134 0.986618 0.986618
0.122885 0.986618 0.986618
0.416790 0.986618 0.986618
0.809818 0.986618 0.986618
0.986618 0.986618 0.986618
1.000000 0.988249 0.988249
1.000000 1.000000 1.000000
1.000000 1.000000 1.000000
0.713195 1.000000 0.988249
0.713618 1.000000 0.988249
0.717251 1.000000 0.988249
0.745370 1.000000 0.988249
0.865508 1.000000 0.988249
0.988249 1.000000 0.988249
1.000000 1.000000 0.988249
1.000000 1.000000 1.000000
1.000000 1.000000 1.000000
1.000000 1.000000 1.000000
1.000000 1.000000 1.000000
1.000000 1.000000 1.000000
1.000000 1.000000 1.000000
1.000000 1.000000 1.000000
1.000000 1.000000 1.000000
1.000000 1.000000 1.000000
1.000000 1.000000 1.000000
1.000000 1.000000 1.000000
1.000000 1.000000 1.000000
1.000000 1.000000 1.000000
1.000000 1.000000 1.000000
1.000000 1.000000 1.000000
1.000000 1.000000 1.000000
1.000000 1.000000 1.000000
1.000000 1.000000 1.000000
1.000000 1.000000 1.000000
1.000000 1.000000 1.000000
0.713195 0.713195 1.000000
0.713618 0.713195 1.000000
0.717251 0.713195 1.000000
0.745370 0.713195 1.000000
0.865509 0.713195 1.000000
0.988249 0.713195 1.000000
1.000000 0.713195 1.000000
1.000000 1.000000 1.000000
1.000000 1.000000 1.000000
0.713195 0.713618 1.000000
0.713618 0.713618 1.000000
0.717251 0.713618 1.000000
0.745370 0.713618 1.000000
0.865508 0.713618 1.000000
0.988249 0.713618 1.000000
1.000000 0.713618 1.000000
1.000000 1.000000 1.000000
1.000000 1.000000 1.000000
0.713195 0.717251 1.000000
0.713618 0.717251 1.000000
0.717251 0.717251 1.000000
0.745370 0.717251 1.000000
0.865508 0.717251 1.000000
0.988249 0.717251 1.000000
1.000000 0.717251 1.000000
1.000000 1.000000 1.000000
1.000000 1.000000 1.000000
0.713195 0.745370 1.000000
0.713618 0.745370 1.000000
0.717251 0.745370 1.000000
0.745370 0.745370 1.000000
0.865509 0.745370 1.000000
0.988249 0.745370 1.000000
1.000000 0.745370 1.000000
1.000000 1.000000 1.000000
1.000000 1.000000 1.000000
0.713195 0.865509 1.000000
0.713618 0.865508 1.000000
0.717251 0.865508 1.000000
0.745370 0.865509 1.000000
0.865509 0.865509 1.000000
0.988249 0.865508 1.000000
1.000000 0.865509 1.000000
1.000000 1.000000 1.000000
1.000000 1.000000 1.000000
0.713195 0.988249 1.000000
0.713618 0.988249 1.000000
0.717251 0.988249 1.000000
0.745370 0.988249 1.000000
0.865508 0.988249 1.000000
0.988249 0.988249 1.000000
1.000000 0.988249 1.000000
1.000000 1.000000 1.000000
1.000000 1.000000 1.000000
0.713195 1.000000 1.000000
0.713618 1.000000 1.000000
0.717251 1.000000 1.000000
0.745370 1.000000 1.000000
0.865509 1.000000 1.000000
0.988249 1.000000 1.000000
1.000000 1.000000 1.000000
1.000000 1.000000 1.000000
1.000000 1.000000 1.000000
1.000000 1.000000 1.000000
1.000000 1.000000 1.000000
1.000000 1.000000 1.000000
1.000000 1.000000 1.000000
1.000000 1.000000 1.000000
1.000000 1.000000 1.000000
1.000000 1.000000 1.000000
1.000000 1.000000 1.000000
1.000000 1.000000 1.000000
1.000000 1.000000 1.000000
1.000000 1.000000 1.000000
1.000000 1.000000 1.000000
1.000000 1.000000 1.000000
1.000000 1.000000 1.000000
1.000000 1.000000 1.000000
1.000000 1.000000 1.000000
1.000000 1.000000 1.000000
1.000000 1.000000 1.000000
1.000000 1.000000 1.000000
1.000000 1.000000 1.000000
1.000000 1.000000 1.000000
1.000000 1.000000 1.000000
1.000000 1.000000 1.000000
1.000000 1.000000 1.000000
1.000000 1.000000 1.000000
1.000000 1.000000 1.000000
1.000000 1.000000 1.000000
1.000000 1.000000 1.000000
1.000000 1.000000 1.000000
1.000000 1.000000 1.000000
1.000000 1.000000 1.000000
1.000000 1.000000 1.000000
1.000000 1.000000 1.000000
1.000000 1.000000 1.000000
1.000000 1.000000 1.000000
1.000000 1.000000 1.000000
1.000000 1.000000 1.000000
1.000000 1.000000 1.000000
1.000000 1.000000 1.000000
1.000000 1.000000 1.000000
1.000000 1.000000 1.000000
1.000000 1.000000 1.000000
1.000000 1.000000 1.000000
1.000000 1.000000 1.000000
1.000000 1.000000 1.000000
1.000000 1.000000 1.000000
1.000000 1.000000 1.000000
1.000000 1.000000 1.000000
1.000000 1.000000 1.000000
1.000000 1.000000 1.000000
1.000000 1.000000 1.000000
1.000000 1.000000 1.000000
1.000000 1.000000 1.000000
1.000000 1.000000 1.000000
1.000000 1.000000 1.000000
1.000000 1.000000 1.000000
1.000000 1.000000 1.000000
1.000000 1.000000 1.000000
1.000000 1.000000 1.000000
1.000000 1.000000 1.000000
1.000000 1.000000 1.000000
1.000000 1.000000 1.000000
1.000000 1.000000 1.000000
1.000000 1.000000 1.000000
1.000000 1.000000 1.000000
1.000000 1.000000 1.000000
1.000000 1.000000 1.000000
1.000000 1.000000 1.000000
1.000000 1.000000 1.000000
1.000000 1.000000 1.000000
1.000000 1.000000 1.000000
1.000000 1.000000 1.000000
1.000000 1.000000 1.000000
1.000000 1.000000 1.000000
1.000000 1.000000 1.000000
1.000000 1.000000 1.000000
1.000000 1.000000 1.000000
1.000000 1.000000 1.000000
1.000000 1.000000 1.000000
1.000000 1.000000 1.000000
1.000000 1.000000 1.000000
1.000000 1.000000 1.000000
1.000000 1.000000 1.000000
1.000000 1.000000 1.000000
1.000000 1.000000 1.000000
1.000000 1.000000 1.000000
1.000000 1.000000 1.000000
1.000000 1.000000 1.000000
1.000000 1.000000 1.000000
1.000000 1.000000 1.000000
1.000000 1.000000 1.000000
1.000000 1.000000 1.000000
1.000000 1.000000 1.000000
1.000000 1.000000 1.000000
1.000000 1.000000 1.000000
1.000000 1.000000 1.000000
1.000000 1.000000 1.000000
1.000000 1.000000 1.000000
1.000000 1.000000 1.000000
1.000000 1.000000 1.000000
1.000000 1.000000 1.000000
1.000000 1.000000 1.000000
1.000000 1.000000 1.000000
1.000000 1.000000 1.000000
1.000000 1.000000 1.000000
1.000000 1.000000 1.000000
1.000000 1.000000 1.000000
1.000000 1.000000 1.000000
1.000000 1.000000 1.000000
1.000000 1.000000 1.000000
1.000000 1.000000 1.000000
1.000000 1.000000 1.000000
1.000000 1.000000 1.000000
1.000000 1.000000 1.000000
1.000000 1.000000 1.000000
1.000000 1.000000 1.000000
1.000000 1.000000 1.000000
1.000000 1.000000 1.000000
1.000000 1.000000 1.000000
1.000000 1.000000 1.000000
1.000000 1.000000 1.000000
1.000000 1.000000 1.000000
1.000000 1.000000 1.000000
1.000000 1.000000 1.000000
1.000000 1.000000 1.000000
1.000000 1.000000 1.000000
1.000000 1.000000 1.000000
1.000000 1.000000 1.000000
1.000000 1.000000 1.000000
1.000000 1.000000 1.000000
1.000000 1.000000 1.000000
1.000000 1.000000 1.000000
1.000000 1.000000 1.000000
1.000000 1.000000 1.000000
1.000000 1.000000 1.000000
1.000000 1.000000 1.000000
1.000000 1.000000 1.000000
1.000000 1.000000 1.000000
1.000000 1.000000 1.000000
1.000000 1.000000 1.000000
1.000000 1.000000 1.000000
1.000000 1.000000 1.000000
1.000000 1.000000 1.000000
1.000000 1.000000 1.000000
1.000000 1.000000 1.000000
1.000000 1.000000 1.000000
1.000000 1.000000 1.000000
1.000000 1.000000 1.000000
1.000000 1.000000 1.000000
1.000000 1.000000 1.000000
1.000000 1.000000 1.000000
1.000000 1.000000 1.000000
1.000000 1.000000 1.000000
1.000000 1.000000 1.000000
1.000000 1.000000 1.000000
1.000000 1.000000 1.000000
1.000000 1.000000 1.000000
1.000000 1.000000 1.000000
1.000000 1.000000 1.000000
1.000000 1.000000 1.000000
1.000000 1.000000 1.000000
1.000000 1.000000 1.000000
1.000000 1.000000 1.000000
1.000000 1.000000 1.000000
1.000000 1.000000 1.000000
1.000000 1.000000 1.000000
1.000000 1.000000 1.000000
1.000000 1.000000 1.000000
1.000000 1.000000 1.000000
1.000000 1.000000 1.000000
1.000000 1.000000 1.000000
1.000000 1.000000 1.000000
1.000000 1.000000 1.000000
1.000000 1.000000 1.000000
1.000000 1.000000 1.000000
1.000000 1.000000 1.000000
1.000000 1.000000 1.000000
1.000000 1.000000 1.000000
1.000000 1.000000 1.000000
1.000000 1.000000 1.000000
