shaders/Filmic_Base_sRGB.cube
TITLE "Filmic_Base_sRGB"
LUT_3D_SIZE 33
DOMAIN_MIN 0.0 0.0 0.0
DOMAIN_MAX 1.0 1.0 1.0
0.000015 0.000015 0.000015
0.003183 0.000015 0.000015
0.007803 0.000015 0.000015
0.014492 0.000015 0.000015
0.024134 0.000015 0.000015
0.037947 0.000015 0.000015
0.057559 0.000015 0.000015
0.085048 0.000015 0.000015
0.122885 0.000015 0.000015
0.173660 0.000015 0.000015
0.239508 0.000015 0.000015
0.321139 0.000015 0.000015
0.416790 0.000015 0.000015
0.521273 0.000015 0.000015
0.626225 0.000015 0.000015
0.724631 0.000015 0.000015
0.809818 0.000015 0.000015
0.878131 0.000015 0.000015
0.929040 0.000015 0.000015
0.964272 0.000015 0.000015
0.986618 0.000015 0.000015
0.999045 0.060370 0.060370
1.000000 0.227804 0.227804
1.000000 0.469175 0.469175
1.000000 0.713195 0.713195
1.000000 0.885161 0.885161
1.000000 0.972170 0.972170
1.000000 1.000000 1.000000
1.000000 1.000000 1.000000
1.000000 1.000000 1.000000
1.000000 1.000000 1.000000
1.000000 1.000000 1.000000
1.000000 1.000000 1.000000
0.000015 0.003183 0.000015
0.003183 0.003183 0.000015
0.007803 0.003183 0.000015
0.014492 0.003183 0.000015
0.024134 0.003183 0.000015
0.037947 0.003183 0.000015
0.057559 0.003183 0.000015
0.085048 0.003183 0.000015
0.122885 0.003183 0.000015
0.173660 0.003183 0.000015
0.239508 0.003183 0.000015
0.321139 0.003183 0.000015
0.416790 0.003183 0.000015
0.521273 0.003183 0.000015
0.626225 0.003183 0.000015
0.724631 0.003183 0.000015
0.809818 0.003183 0.000015
0.878131 0.003183 0.000015
0.929040 0.003183 0.000015
0.964272 0.003183 0.000015
0.986618 0.003183 0.000015
0.999045 0.061524 0.060370
1.000000 0.228260 0.227804
1.000000 0.469337 0.469175
1.000000 0.713234 0.713195
1.000000 0.885168 0.885161
1.000000 0.972171 0.972170
1.000000 1.000000 1.000000
1.000000 1.000000 1.000000
1.000000 1.000000 1.000000
1.000000 1.000000 1.000000
1.000000 1.000000 1.000000
1.000000 1.000000 1.000000
0.000015 0.007803 0.000015
0.003183 0.007803 0.000015
0.007803 0.007803 0.000015
0.014492 0.007803 0.000015
0.024134 0.007803 0.000015
0.037947 0.007803 0.000015
0.057559 0.007803 0.000015
0.085048 0.007803 0.000015
0.122885 0.007803 0.000015
0.173660 0.007803 0.000015
0.239508 0.007803 0.000015
0.321139 0.007803 0.000015
0.416790 0.007803 0.000015
0.521273 0.007803 0.000015
0.626225 0.007803 0.000015
0.724631 0.007803 0.000015
0.809818 0.007803 0.000015
0.878131 0.007803 0.000015
0.929040 0.007803 0.000015
0.964272 0.007803 0.000015
0.986618 0.007803 0.000015
0.999045 0.063489 0.060370
1.000000 0.229046 0.227804
1.000000 0.469610 0.469175
1.000000 0.713301 0.713195
1.000000 0.885179 0.885161
1.000000 0.972172 0.972170
1.000000 1.000000 1.000000
1.000000 1.000000 1.000000
1.000000 1.000000 1.000000
1.000000 1.000000 1.000000
1.000000 1.000000 1.000000
1.000000 1.000000 1.000000
0.000015 0.014492 0.000015
0.003183 0.014492 0.000015
0.007803 0.014492 0.000015
0.014492 0.014492 0.000015
0.024134 0.014492 0.000015
0.037947 0.014492 0.000015
0.057559 0.014492 0.000015
0.085048 0.014492 0.000015
0.122885 0.014492 0.000015
0.173660 0.014492 0.000015
0.239508 0.014492 0.000015
0.321139 0.014492 0.000015
0.416790 0.014492 0.000015
0.521273 0.014492 0.000015
0.626225 0.014492 0.000015
0.724631 0.014492 0.000015
0.809818 0.014492 0.000015
0.878131 0.014492 0.000015
0.929040 0.014492 0.000015
0.964272 0.014492 0.000015
0.986618 0.014492 0.000015
0.999045 0.066795 0.060370
1.000000 0.230387 0.227804
1.000000 0.470077 0.469175
1.000000 0.713415 0.713195
1.000000 0.885201 0.885161
1.000000 0.972175 0.972170
1.000000 1.000000 1.000000
1.000000 1.000000 1.000000
1.000000 1.000000 1.000000
1.000000 1.000000 1.000000
1.000000 1.000000 1.000000
1.000000 1.000000 1.000000
0.000015 0.024134 0.000015
0.003183 0.024134 0.000015
0.007803 0.024134 0.000015
0.014492 0.024134 0.000015
0.024134 0.024134 0.000015
0.037947 0.024134 0.000015
0.057559 0.024134 0.000015
0.085048 0.024134 0.000015
0.122885 0.024134 0.000015
0.173660 0.024134 0.000015
0.239508 0.024134 0.000015
0.321139 0.024134 0.000015
0.416790 0.024134 0.000015
0.521273 0.024134 0.000015
0.626225 0.024134 0.000015
0.724631 0.024134 0.000015
0.809818 0.024134 0.000015
0.878131 0.024134 0.000015
0.929040 0.024134 0.000015
0.964272 0.024134 0.000015
0.986618 0.024134 0.000015
0.999045 0.072281 0.060370
1.000000 0.232673 0.227804
1.000000 0.470879 0.469175
1.000000 0.713618 0.713195
1.000000 0.885236 0.885161
1.000000 0.972179 0.972170
1.000000 1.000000 1.000000
1.000000 1.000000 1.000000
1.000000 1.000000 1.000000
1.000000 1.000000 1.000000
1.000000 1.000000 1.000000
1.000000 1.000000 1.000000
0.000015 0.037947 0.000015
0.003183 0.037947 0.000015
0.007803 0.037947 0.000015
0.014492 0.037947 0.000015
0.024134 0.037947 0.000015
0.037947 0.037947 0.000015
0.057559 0.037947 0.000015
0.085048 0.037947 0.000015
0.122885 0.037947 0.000015
0.173660 0.037947 0.000015
0.239508 0.037947 0.000015
0.321139 0.037947 0.000015
0.416790 0.037947 0.000015
0.521273 0.037947 0.000015
0.626225 0.037947 0.000015
0.724631 0.037947 0.000015
0.809818 0.037947 0.000015
0.878131 0.037947 0.000015
0.929040 0.037947 0.000015
0.964272 0.037947 0.000015
0.986618 0.037947 0.000015
0.999045 0.081213 0.060370
1.000000 0.236553 0.227804
1.000000 0.472253 0.469175
1.000000 0.713958 0.713195
1.000000 0.885298 0.885161
1.000000 0.972188 0.972170
1.000000 1.000000 1.000000
1.000000 1.000000 1.000000
1.000000 1.000000 1.000000
1.000000 1.000000 1.000000
1.000000 1.000000 1.000000
1.000000 1.000000 1.000000
0.000015 0.057559 0.000015
0.003183 0.057559 0.000015
0.007803 0.057559 0.000015
0.014492 0.057559 0.000015
0.024134 0.057559 0.000015
0.037947 0.057559 0.000015
0.057559 0.057559 0.000015
0.085048 0.057559 0.000015
0.122885 0.057559 0.000015
0.173660 0.057559 0.000015
0.239508 0.057559 0.000015
0.321139 0.057559 0.000015
0.416790 0.057559 0.000015
0.521273 0.057559 0.000015
0.626225 0.057559 0.000015
0.724631 0.057559 0.000015
0.809818 0.057559 0.000015
0.878131 0.057559 0.000015
0.929040 0.057559 0.000015
0.964272 0.057559 0.000015
0.986618 0.057559 0.000015
0.999045 0.095373 0.060370
1.000000 0.243066 0.227804
1.000000 0.474593 0.469175
1.000000 0.714546 0.713195
1.000000 0.885403 0.885161
1.000000 0.972201 0.972170
1.000000 1.000000 1.000000
1.000000 1.000000 1.000000
1.000000 1.000000 1.000000
1.000000 1.000000 1.000000
1.000000 1.000000 1.000000
1.000000 1.000000 1.000000
0.000015 0.085048 0.000015
0.003183 0.085048 0.000015
0.007803 0.085048 0.000015
0.014492 0.085048 0.000015
0.024134 0.085048 0.000015
0.037947 0.085048 0.000015
0.057559 0.085048 0.000015
0.085048 0.085048 0.000015
0.122885 0.085048 0.000015
0.173660 0.085048 0.000015
0.239508 0.085048 0.000015
0.321139 0.085048 0.000015
0.416790 0.085048 0.000015
0.521273 0.085048 0.000015
0.626225 0.085048 0.000015
0.724631 0.085048 0.000015
0.809818 0.085048 0.000015
0.878131 0.085048 0.000015
0.929040 0.085048 0.000015
0.964272 0.085048 0.000015
0.986618 0.085048 0.000015
0.999045 0.117085 0.060370
1.000000 0.253843 0.227804
1.000000 0.478558 0.469175
1.000000 0.715545 0.713195
1.000000 0.885584 0.885161
1.000000 0.972225 0.972170
1.000000 1.000000 1.000000
1.000000 1.000000 1.000000
1.000000 1.000000 1.000000
1.000000 1.000000 1.000000
1.000000 1.000000 1.000000
1.000000 1.000000 1.000000
0.000015 0.122885 0.000015
0.003183 0.122885 0.000015
0.007803 0.122885 0.000015
0.014492 0.122885 0.000015
0.024134 0.122885 0.000015
0.037947 0.122885 0.000015
0.057559 0.122885 0.000015
0.085048 0.122885 0.000015
0.122885 0.122885 0.000015
0.173660 0.122885 0.000015
0.239508 0.122885 0.000015
0.321139 0.122885 0.000015
0.416790 0.122885 0.000015
0.521273 0.122885 0.000015
0.626225 0.122885 0.000015
0.724631 0.122885 0.000015
0.809818 0.122885 0.000015
0.878131 0.122885 0.000015
0.929040 0.122885 0.000015
0.964272 0.122885 0.000015
0.986618 0.122885 0.000015
0.999045 0.149102 0.060370
1.000000 0.271260 0.227804
1.000000 0.485198 0.469175
1.000000 0.717251 0.713195
1.000000 0.885895 0.885161
1.000000 0.972266 0.972170
1.000000 1.000000 1.000000
1.000000 1.000000 1.000000
1.000000 1.000000 1.000000
1.000000 1.000000 1.000000
1.000000 1.000000 1.000000
1.000000 1.000000 1.000000
0.000015 0.173660 0.000015
0.003183 0.173660 0.000015
0.007803 0.173660 0.000015
0.014492 0.173660 0.000015
0.024134 0.173660 0.000015
0.037947 0.173660 0.000015
0.057559 0.173660 0.000015
0.085048 0.173660 0.000015
0.122885 0.173660 0.000015
0.173660 0.173660 0.000015
0.239508 0.173660 0.000015
0.321139 0.173660 0.000015
0.416790 0.173660 0.000015
0.521273 0.173660 0.000015
0.626225 0.173660 0.000015
0.724631 0.173660 0.000015
0.809818 0.173660 0.000015
0.878131 0.173660 0.000015
0.929040 0.173660 0.000015
0.964272 0.173660 0.000015
0.986618 0.173660 0.000015
0.999045 0.194278 0.060370
1.000000 0.298443 0.227804
1.000000 0.496148 0.469175
1.000000 0.720130 0.713195
1.000000 0.886425 0.885161
1.000000 0.972335 0.972170
1.000000 1.000000 1.000000
1.000000 1.000000 1.000000
1.000000 1.000000 1.000000
1.000000 1.000000 1.000000
1.000000 1.000000 1.000000
1.000000 1.000000 1.000000
0.000015 0.239508 0.000015
0.003183 0.239508 0.000015
0.007803 0.239508 0.000015
0.014492 0.239508 0.000015
0.024134 0.239508 0.000015
0.037947 0.239508 0.000015
0.057559 0.239508 0.000015
0.085048 0.239508 0.000015
0.122885 0.239508 0.000015
0.173660 0.239508 0.000015
0.239508 0.239508 0.000015
0.321139 0.239508 0.000015
0.416790 0.239508 0.000015
0.521273 0.239508 0.000015
0.626225 0.239508 0.000015
0.724631 0.239508 0.000015
0.809818 0.239508 0.000015
0.878131 0.239508 0.000015
0.929040 0.239508 0.000015
0.964272 0.239508 0.000015
0.986618 0.239508 0.000015
0.999045 0.254983 0.060370
1.000000 0.338841 0.227804
1.000000 0.513540 0.469175
1.000000 0.724944 0.713195
1.000000 0.887325 0.885161
1.000000 0.972454 0.972170
1.000000 1.000000 1.000000
1.000000 1.000000 1.000000
1.000000 1.000000 1.000000
1.000000 1.000000 1.000000
1.000000 1.000000 1.000000
1.000000 1.000000 1.000000
0.000015 0.321139 0.000015
0.003183 0.321139 0.000015
0.007803 0.321139 0.000015
0.014492 0.321139 0.000015
0.024134 0.321139 0.000015
0.037947 0.321139 0.000015
0.057559 0.321139 0.000015
0.085048 0.321139 0.000015
0.122885 0.321139 0.000015
0.173660 0.321139 0.000015
0.239508 0.321139 0.000015
0.321139 0.321139 0.000015
0.416790 0.321139 0.000015
0.521273 0.321139 0.000015
0.626225 0.321139 0.000015
0.724631 0.321139 0.000015
0.809818 0.321139 0.000015
0.878131 0.321139 0.000015
0.929040 0.321139 0.000015
0.964272 0.321139 0.000015
0.986618 0.321139 0.000015
0.999045 0.332115 0.060370
1.000000 0.395177 0.227804
1.000000 0.540242 0.469175
1.000000 0.732833 0.713195
1.000000 0.888845 0.885161
1.000000 0.972656 0.972170
1.000000 1.000000 1.000000
1.000000 1.000000 1.000000
1.000000 1.000000 1.000000
1.000000 1.000000 1.000000
1.000000 1.000000 1.000000
1.000000 1.000000 1.000000
0.000015 0.416790 0.000015
0.003183 0.416790 0.000015
0.007803 0.416790 0.000015
0.014492 0.416790 0.000015
0.024134 0.416790 0.000015
0.037947 0.416790 0.000015
0.057559 0.416790 0.000015
0.085048 0.416790 0.000015
0.122885 0.416790 0.000015
0.173660 0.416790 0.000015
0.239508 0.416790 0.000015
0.321139 0.416790 0.000015
0.416790 0.416790 0.000015
0.521273 0.416790 0.000015
0.626225 0.416790 0.000015
0.724631 0.416790 0.000015
0.809818 0.416790 0.000015
0.878131 0.416790 0.000015
0.929040 0.416790 0.000015
0.964272 0.416790 0.000015
0.986618 0.416790 0.000015
0.999045 0.424074 0.060370
1.000000 0.467924 0.227804
1.000000 0.578996 0.469175
1.000000 0.745370 0.713195
1.000000 0.891379 0.885161
1.000000 0.973002 0.972170
1.000000 1.000000 1.000000
1.000000 1.000000 1.000000
1.000000 1.000000 1.000000
1.000000 1.000000 1.000000
1.000000 1.000000 1.000000
1.000000 1.000000 1.000000
0.000015 0.521273 0.000015
0.003183 0.521273 0.000015
0.007803 0.521273 0.000015
0.014492 0.521273 0.000015
0.024134 0.521273 0.000015
0.037947 0.521273 0.000015
0.057559 0.521273 0.000015
0.085048 0.521273 0.000015
0.122885 0.521273 0.000015
0.173660 0.521273 0.000015
0.239508 0.521273 0.000015
0.321139 0.521273 0.000015
0.416790 0.521273 0.000015
0.521273 0.521273 0.000015
0.626225 0.521273 0.000015
0.724631 0.521273 0.000015
0.809818 0.521273 0.000015
0.878131 0.521273 0.000015
0.929040 0.521273 0.000015
0.964272 0.521273 0.000015
0.986618 0.521273 0.000015
0.999045 0.525687 0.060370
1.000000 0.553274 0.227804
1.000000 0.630887 0.469175
1.000000 0.764374 0.713195
1.000000 0.895513 0.885161
1.000000 0.973583 0.972170
1.000000 1.000000 1.000000
1.000000 1.000000 1.000000
1.000000 1.000000 1.000000
1.000000 1.000000 1.000000
1.000000 1.000000 1.000000
1.000000 1.000000 1.000000
0.000015 0.626225 0.000015
0.003183 0.626225 0.000015
0.007803 0.626225 0.000015
0.014492 0.626225 0.000015
0.024134 0.626225 0.000015
0.037947 0.626225 0.000015
0.057559 0.626225 0.000015
0.085048 0.626225 0.000015
0.122885 0.626225 0.000015
0.173660 0.626225 0.000015
0.239508 0.626225 0.000015
0.321139 0.626225 0.000015
0.416790 0.626225 0.000015
0.521273 0.626225 0.000015
0.626225 0.626225 0.000015
0.724631 0.626225 0.000015
0.809818 0.626225 0.000015
0.878131 0.626225 0.000015
0.929040 0.626225 0.000015
0.964272 0.626225 0.000015
0.986618 0.626225 0.000015
0.999045 0.628718 0.060370
1.000000 0.644777 0.227804
1.000000 0.693864 0.469175
1.000000 0.791242 0.713195
1.000000 0.902036 0.885161
1.000000 0.974548 0.972170
1.000000 1.000000 1.000000
1.000000 1.000000 1.000000
1.000000 1.000000 1.000000
1.000000 1.000000 1.000000
1.000000 1.000000 1.000000
1.000000 1.000000 1.000000
0.000015 0.724631 0.000015
0.003183 0.724631 0.000015
0.007803 0.724631 0.000015
0.014492 0.724631 0.000015
0.024134 0.724631 0.000015
0.037947 0.724631 0.000015
0.057559 0.724631 0.000015
0.085048 0.724631 0.000015
0.122885 0.724631 0.000015
0.173660 0.724631 0.000015
0.239508 0.724631 0.000015
0.321139 0.724631 0.000015
0.416790 0.724631 0.000015
0.521273 0.724631 0.000015
0.626225 0.724631 0.000015
0.724631 0.724631 0.000015
0.809818 0.724631 0.000015
0.878131 0.724631 0.000015
0.929040 0.724631 0.000015
0.964272 0.724631 0.000015
0.986618 0.724631 0.000015
0.999045 0.725917 0.060370
1.000000 0.734436 0.227804
1.000000 0.762323 0.469175
1.000000 0.825825 0.713195
1.000000 0.911804 0.885161
1.000000 0.976116 0.972170
1.000000 1.000000 1.000000
1.000000 1.000000 1.000000
1.000000 1.000000 1.000000
1.000000 1.000000 1.000000
1.000000 1.000000 1.000000
1.000000 1.000000 1.000000
0.000015 0.809818 0.000015
0.003183 0.809818 0.000015
0.007803 0.809818 0.000015
0.014492 0.809818 0.000015
0.024134 0.809818 0.000015
0.037947 0.809818 0.000015
0.057559 0.809818 0.000015
0.085048 0.809818 0.000015
0.122885 0.809818 0.000015
0.173660 0.809818 0.000015
0.239508 0.809818 0.000015
0.321139 0.809818 0.000015
0.416790 0.809818 0.000015
0.521273 0.809818 0.000015
0.626225 0.809818 0.000015
0.724631 0.809818 0.000015
0.809818 0.809818 0.000015
0.878131 0.809818 0.000015
0.929040 0.809818 0.000015
0.964272 0.809818 0.000015
0.986618 0.809818 0.000015
0.999045 0.810424 0.060370
1.000000 0.814546 0.227804
1.000000 0.828814 0.469175
1.000000 0.865509 0.713195
1.000000 0.925341 0.885161
1.000000 0.978567 0.972170
1.000000 1.000000 1.000000
1.000000 1.000000 1.000000
1.000000 1.000000 1.000000
1.000000 1.000000 1.000000
1.000000 1.000000 1.000000
1.000000 1.000000 1.000000
0.000015 0.878131 0.000015
0.003183 0.878131 0.000015
0.007803 0.878131 0.000015
0.014492 0.878131 0.000015
0.024134 0.878131 0.000015
0.037947 0.878131 0.000015
0.057559 0.878131 0.000015
0.085048 0.878131 0.000015
0.122885 0.878131 0.000015
0.173660 0.878131 0.000015
0.239508 0.878131 0.000015
0.321139 0.878131 0.000015
0.416790 0.878131 0.000015
0.521273 0.878131 0.000015
0.626225 0.878131 0.000015
0.724631 0.878131 0.000015
0.809818 0.878131 0.000015
0.878131 0.878131 0.000015
0.929040 0.878131 0.000015
0.964272 0.878131 0.000015
0.986618 0.878131 0.000015
0.999045 0.878390 0.060370
1.000000 0.880210 0.227804
1.000000 0.886819 0.469175
1.000000 0.905595 0.713195
1.000000 0.942219 0.885161
1.000000 0.982179 0.972170
1.000000 1.000000 1.000000
1.000000 1.000000 1.000000
1.000000 1.000000 1.000000
1.000000 1.000000 1.000000
1.000000 1.000000 1.000000
1.000000 1.000000 1.000000
0.000015 0.929040 0.000015
0.003183 0.929040 0.000015
0.007803 0.929040 0.000015
0.014492 0.929040 0.000015
0.024134 0.929040 0.000015
0.037947 0.929040 0.000015
0.057559 0.929040 0.000015
0.085048 0.929040 0.000015
0.122885 0.929040 0.000015
0.173660 0.929040 0.000015
0.239508 0.929040 0.000015
0.321139 0.929040 0.000015
0.416790 0.929040 0.000015
0.521273 0.929040 0.000015
0.626225 0.929040 0.000015
0.724631 0.929040 0.000015
0.809818 0.929040 0.000015
0.878131 0.929040 0.000015
0.929040 0.929040 0.000015
0.964272 0.929040 0.000015
0.986618 0.929040 0.000015
0.999045 0.929139 0.060370
1.000000 0.929869 0.227804
1.000000 0.932646 0.469175
1.000000 0.941185 0.713195
1.000000 0.960662 0.885161
1.000000 0.987041 0.972170
1.000000 1.000000 1.000000
1.000000 1.000000 1.000000
1.000000 1.000000 1.000000
1.000000 1.000000 1.000000
1.000000 1.000000 1.000000
1.000000 1.000000 1.000000
0.000015 0.964272 0.000015
0.003183 0.964272 0.000015
0.007803 0.964272 0.000015
0.014492 0.964272 0.000015
0.024134 0.964272 0.000015
0.037947 0.964272 0.000015
0.057559 0.964272 0.000015
0.085048 0.964272 0.000015
0.122885 0.964272 0.000015
0.173660 0.964272 0.000015
0.239508 0.964272 0.000015
0.321139 0.964272 0.000015
0.416790 0.964272 0.000015
0.521273 0.964272 0.000015
0.626225 0.964272 0.000015
0.724631 0.964272 0.000015
0.809818 0.964272 0.000015
0.878131 0.964272 0.000015
0.929040 0.964272 0.000015
0.964272 0.964272 0.000015
0.986618 0.964272 0.000015
0.999045 0.964302 0.060370
1.000000 0.964562 0.227804
1.000000 0.965612 0.469175
1.000000 0.969057 0.713195
1.000000 0.977974 0.885161
1.000000 0.992791 0.972170
1.000000 1.000000 1.000000
1.000000 1.000000 1.000000
1.000000 1.000000 1.000000
1.000000 1.000000 1.000000
1.000000 1.000000 1.000000
1.000000 1.000000 1.000000
0.000015 0.986618 0.000015
0.003183 0.986618 0.000015
0.007803 0.986618 0.000015
0.014492 0.986618 0.000015
0.024134 0.986618 0.000015
0.037947 0.986618 0.000015
0.057559 0.986618 0.000015
0.085048 0.986618 0.000015
0.122885 0.986618 0.000015
0.173660 0.986618 0.000015
0.239508 0.986618 0.000015
0.321139 0.986618 0.000015
0.416790 0.986618 0.000015
0.521273 0.986618 0.000015
0.626225 0.986618 0.000015
0.724631 0.986618 0.000015
0.809818 0.986618 0.000015
0.878131 0.986618 0.000015
0.929040 0.986618 0.000015
0.964272 0.986618 0.000015
0.986618 0.986618 0.000015
0.999045 0.986625 0.060370
1.000000 0.986702 0.227804
1.000000 0.987045 0.469175
1.000000 0.988249 0.713195
1.000000 0.991689 0.885161
1.000000 0.998469 0.972170
1.000000 1.000000 1.000000
1.000000 1.000000 1.000000
1.000000 1.000000 1.000000
1.000000 1.000000 1.000000
1.000000 1.000000 1.000000
1.000000 1.000000 1.000000
0.060370 0.999045 0.060370
0.061524 0.999045 0.060370
0.063489 0.999045 0.060370
0.066795 0.999045 0.060370
0.072281 0.999045 0.060370
0.081213 0.999045 0.060370
0.095373 0.999045 0.060370
0.117085 0.999045 0.060370
0.149102 0.999045 0.060370
0.194278 0.999045 0.060370
0.254983 0.999045 0.060370
0.332115 0.999045 0.060370
0.424074 0.999045 0.060370
0.525687 0.999045 0.060370
0.628718 0.999045 0.060370
0.725917 0.999045 0.060370
0.810424 0.999045 0.060370
0.878390 0.999045 0.060370
0.929139 0.999045 0.060370
0.964302 0.999045 0.060370
0.986625 0.999045 0.060370
0.999045 0.999045 0.060370
1.000000 0.999060 0.227804
1.000000 0.999147 0.469175
1.000000 0.999480 0.713195
1.000000 1.000000 0.885161
1.000000 1.000000 0.972170
1.000000 1.000000 1.000000
1.000000 1.000000 1.000000
1.000000 1.000000 1.000000
1.000000 1.000000 1.000000
1.000000 1.000000 1.000000
1.000000 1.000000 1.000000
0.227804 1.000000 0.227804
0.228260 1.000000 0.227804
0.229046 1.000000 0.227804
0.230387 1.000000 0.227804
0.232673 1.000000 0.227804
0.236553 1.000000 0.227804
0.243066 1.000000 0.227804
0.253843 1.000000 0.227804
0.271260 1.000000 0.227804
0.298443 1.000000 0.227804
0.338841 1.000000 0.227804
0.395177 1.000000 0.227804
0.467924 1.000000 0.227804
0.553274 1.000000 0.227804
0.644777 1.000000 0.227804
0.734436 1.000000 0.227804
0.814546 1.000000 0.227804
0.880210 1.000000 0.227804
0.929869 1.000000 0.227804
0.964562 1.000000 0.227804
0.986702 1.000000 0.227804
0.999060 1.000000 0.227804
1.000000 1.000000 0.227804
1.000000 1.000000 0.469175
1.000000 1.000000 0.713195
1.000000 1.000000 0.885161
1.000000 1.000000 0.972170
1.000000 1.000000 1.000000
1.000000 1.000000 1.000000
1.000000 1.000000 1.000000
1.000000 1.000000 1.000000
1.000000 1.000000 1.000000
1.000000 1.000000 1.000000
0.469175 1.000000 0.469175
0.469337 1.000000 0.469175
0.469610 1.000000 0.469175
0.470077 1.000000 0.469175
0.470879 1.000000 0.469175
0.472253 1.000000 0.469175
0.474593 1.000000 0.469175
0.478558 1.000000 0.469175
0.485198 1.000000 0.469175
0.496148 1.000000 0.469175
0.513540 1.000000 0.469175
0.540242 1.000000 0.469175
0.578996 1.000000 0.469175
0.630887 1.000000 0.469175
0.693864 1.000000 0.469175
0.762323 1.000000 0.469175
0.828814 1.000000 0.469175
0.886819 1.000000 0.469175
0.932646 1.000000 0.469175
0.965612 1.000000 0.469175
0.987045 1.000000 0.469175
0.999147 1.000000 0.469175
1.000000 1.000000 0.469175
1.000000 1.000000 0.469175
1.000000 1.000000 0.713195
1.000000 1.000000 0.885161
1.000000 1.000000 0.972170
1.000000 1.000000 1.000000
1.000000 1.000000 1.000000
1.000000 1.000000 1.000000
1.000000 1.000000 1.000000
1.000000 1.000000 1.000000
1.000000 1.000000 1.000000
0.713195 1.000000 0.713195
0.713234 1.000000 0.713195
0.713301 1.000000 0.713195
0.713415 1.000000 0.713195
0.713618 1.000000 0.713195
0.713958 1.000000 0.713195
0.714546 1.000000 0.713195
0.715545 1.000000 0.713195
0.717251 1.000000 0.713195
0.720130 1.000000 0.713195
0.724944 1.000000 0.713195
0.732833 1.000000 0.713195
0.745370 1.000000 0.713195
0.764374 1.000000 0.713195
0.791242 1.000000 0.713195
0.825825 1.000000 0.713195
0.865509 1.000000 0.713195
0.905595 1.000000 0.713195
0.941185 1.000000 0.713195
0.969057 1.000000 0.713195
0.988249 1.000000 0.713195
0.999480 1.000000 0.713195
1.000000 1.000000 0.713195
1.000000 1.000000 0.713195
1.000000 1.000000 0.713195
1.000000 1.000000 0.885161
1.000000 1.000000 0.972170
1.000000 1.000000 1.000000
1.000000 1.000000 1.000000
1.000000 1.000000 1.000000
1.000000 1.000000 1.000000
1.000000 1.000000 1.000000
1.000000 1.000000 1.000000
0.885161 1.000000 0.885161
0.885168 1.000000 0.885161
0.885179 1.000000 0.885161
0.885201 1.000000 0.885161
0.885236 1.000000 0.885161
0.885298 1.000000 0.885161
0.885403 1.000000 0.885161
0.885584 1.000000 0.885161
0.885895 1.000000 0.885161
0.886425 1.000000 0.885161
0.887325 1.000000 0.885161
0.888845 1.000000 0.885161
0.891379 1.000000 0.885161
0.895513 1.000000 0.885161
0.902036 1.000000 0.885161
0.911804 1.000000 0.885161
0.925341 1.000000 0.885161
0.942219 1.000000 0.885161
0.960662 1.000000 0.885161
0.977974 1.000000 0.885161
0.991689 1.000000 0.885161
1.000000 1.000000 0.885161
1.000000 1.000000 0.885161
1.000000 1.000000 0.885161
1.000000 1.000000 0.885161
1.000000 1.000000 0.885161
1.000000 1.000000 0.972170
1.000000 1.000000 1.000000
1.000000 1.000000 1.000000
1.000000 1.000000 1.000000
1.000000 1.000000 1.000000
1.000000 1.000000 1.000000
1.000000 1.000000 1.000000
0.972170 1.000000 0.972170
0.972171 1.000000 0.972170
0.972172 1.000000 0.972170
0.972175 1.000000 0.972170
0.972179 1.000000 0.972170
0.972188 1.000000 0.972170
0.972201 1.000000 0.972170
0.972225 1.000000 0.972170
0.972266 1.000000 0.972170
0.972335 1.000000 0.972170
0.972454 1.000000 0.972170
0.972656 1.000000 0.972170
0.973002 1.000000 0.972170
0.973583 1.000000 0.972170
0.974548 1.000000 0.972170
0.976116 1.000000 0.972170
0.978567 1.000000 0.972170
0.982179 1.000000 0.972170
0.987041 1.000000 0.972170
0.992791 1.000000 0.972170
0.998469 1.000000 0.972170
1.000000 1.000000 0.972170
1.000000 1.000000 0.972170
1.000000 1.000000 0.972170
1.000000 1.000000 0.972170
1.000000 1.000000 0.972170
1.000000 1.000000 0.972170
