shaders/Filmic_Base_sRGB.cube
TITLE "Filmic_Base_sRGB"
LUT_3D_SIZE 5
DOMAIN_MIN 0.0 0.0 0.0
DOMAIN_MAX 1.0 1.0 1.0
0.000015 0.000015 0.000015
0.122885 0.000015 0.000015
0.809818 0.000015 0.000015
1.000000 0.713195 0.713195
1.000000 1.000000 1.000000
0.000015 0.122885 0.000015
0.122885 0.122885 0.000015
0.809818 0.122885 0.000015
1.000000 0.717251 0.713195
1.000000 1.000000 1.000000
0.000015 0.809818 0.000015
0.122885 0.809818 0.000015
0.809818 0.809818 0.000015
1.000000 0.865509 0.713195
1.000000 1.000000 1.000000
0.713195 1.000000 0.713195
0.717251 1.000000 0.713195
0.865509 1.000000 0.713195
1.000000 1.000000 0.713195
1.000000 1.000000 1.000000
1.000000 1.000000 1.000000
1.000000 1.000000 1.000000
1.000000 1.000000 1.000000
1.000000 1.000000 1.000000
1.000000 1.000000 1.000000
0.000015 0.000015 0.122885
0.122885 0.000015 0.122885
0.809818 0.000015 0.122885
1.000000 0.713195 0.717251
1.000000 1.000000 1.000000
0.000015 0.122885 0.122885
0.122885 0.122885 0.122885
0.809818 0.122885 0.122885
1.000000 0.717251 0.717251
1.000000 1.000000 1.000000
0.000015 0.809818 0.122885
0.122885 0.809818 0.122885
0.809818 0.809818 0.122885
1.000000 0.865508 0.717251
1.000000 1.000000 1.000000
0.713195 1.000000 0.717251
0.717251 1.000000 0.717251
0.865508 1.000000 0.717251
1.000000 1.000000 0.717251
1.000000 1.000000 1.000000
1.000000 1.000000 1.000000
1.000000 1.000000 1.000000
1.000000 1.000000 1.000000
1.000000 1.000000 1.000000
1.000000 1.000000 1.000000
0.000015 0.000015 0.809818
0.122885 0.000015 0.809818
0.809818 0.000015 0.809818
1.000000 0.713195 0.865509
1.000000 1.000000 1.000000
0.000015 0.122885 0.809818
0.122885 0.122885 0.809818
0.809818 0.122885 0.809818
1.000000 0.717251 0.865508
1.000000 1.000000 1.000000
0.000015 0.809818 0.809818
0.122885 0.809818 0.809818
0.809818 0.809818 0.809818
1.000000 0.865509 0.865509
1.000000 1.000000 1.000000
0.713195 1.000000 0.865509
0.717251 1.000000 0.865508
0.865509 1.000000 0.865509
1.000000 1.000000 0.865509
1.000000 1.000000 1.000000
1.000000 1.000000 1.000000
1.000000 1.000000 1.000000
1.000000 1.000000 1.000000
1.000000 1.000000 1.000000
1.000000 1.000000 1.000000
0.713195 0.713195 1.000000
0.717251 0.713195 1.000000
0.865509 0.713195 1.000000
1.000000 0.713195 1.000000
1.000000 1.000000 1.000000
0.713195 0.717251 1.000000
0.717251 0.717251 1.000000
0.865508 0.717251 1.000000
1.000000 0.717251 1.000000
1.000000 1.000000 1.000000
0.713195 0.865509 1.000000
0.717251 0.865508 1.000000
0.865509 0.865509 1.000000
1.000000 0.865509 1.000000
1.000000 1.000000 1.000000
0.713195 1.000000 1.000000
0.717251 1.000000 1.000000
0.865509 1.000000 1.000000
1.000000 1.000000 1.000000
1.000000 1.000000 1.000000
1.000000 1.000000 1.000000
1.000000 1.000000 1.000000
1.000000 1.000000 1.000000
1.000000 1.000000 1.000000
1.000000 1.000000 1.000000
1.000000 1.000000 1.000000
1.000000 1.000000 1.000000
1.000000 1.000000 1.000000
1.000000 1.000000 1.000000
1.000000 1.000000 1.000000
1.000000 1.000000 1.000000
1.000000 1.000000 1.000000
1.000000 1.000000 1.000000
1.000000 1.000000 1.000000
1.000000 1.000000 1.000000
1.000000 1.000000 1.000000
1.000000 1.000000 1.000000
1.000000 1.000000 1.000000
1.000000 1.000000 1.000000
1.000000 1.000000 1.000000
1.000000 1.000000 1.000000
1.000000 1.000000 1.000000
1.000000 1.000000 1.000000
1.000000 1.000000 1.000000
1.000000 1.000000 1.000000
1.000000 1.000000 1.000000
1.000000 1.000000 1.000000
1.000000 1.000000 1.000000
1.000000 1.000000 1.000000
1.000000 1.000000 1.000000
